src/icons/servicenow-logo.svg

<?xml version="1.0" encoding="UTF-8"?>
<svg xmlns="http://www.w3.org/2000/svg" xmlns:xlink="http://www.w3.org/1999/xlink" width="211.199997" height="32" viewBox="0 0 211.199997 32" version="1.1">
<g id="surface1">
<path style=" stroke:none;fill-rule:evenodd;fill:rgb(0%,0%,0%);fill-opacity:1;" d="M 51.234375 10.226562 C 49.125 10.21875 47.082031 10.957031 45.460938 12.304688 L 45.460938 10.4375 L 40.191406 10.4375 L 40.191406 30.960938 L 45.671875 30.960938 L 45.671875 17.839844 C 46.863281 16.289062 48.6875 15.355469 50.644531 15.300781 C 51.394531 15.261719 52.140625 15.371094 52.84375 15.628906 L 52.84375 10.367188 C 52.3125 10.273438 51.773438 10.226562 51.234375 10.226562 M 3.457031 24.699219 C 5.019531 26.023438 7.007812 26.742188 9.054688 26.726562 C 10.53125 26.726562 11.667969 26.007812 11.667969 24.992188 C 11.667969 21.902344 1.761719 23.003906 1.761719 16.402344 C 1.761719 12.46875 5.558594 10.015625 9.601562 10.015625 C 12.058594 10.019531 14.460938 10.742188 16.515625 12.09375 L 13.953125 16.0625 C 12.820312 15.207031 11.449219 14.71875 10.03125 14.667969 C 8.515625 14.667969 7.25 15.261719 7.25 16.320312 C 7.25 18.984375 17.15625 17.925781 17.15625 25.035156 C 17.15625 28.972656 13.316406 31.382812 9.019531 31.382812 C 6.058594 31.355469 3.183594 30.394531 0.800781 28.640625 Z M 37.851562 20.507812 C 37.851562 14.796875 33.851562 10.015625 28.195312 10.015625 C 22.125 10.015625 18.246094 15.007812 18.246094 20.71875 C 18.125 23.589844 19.21875 26.382812 21.253906 28.410156 C 23.292969 30.4375 26.089844 31.515625 28.960938 31.382812 C 32.15625 31.425781 35.214844 30.082031 37.347656 27.703125 L 34.230469 24.570312 C 32.910156 26.027344 31.050781 26.882812 29.085938 26.941406 C 26.25 27.03125 23.832031 24.902344 23.558594 22.078125 L 37.726562 22.078125 C 37.8125 21.558594 37.855469 21.035156 37.851562 20.507812 M 23.8125 18.054688 C 24.21875 15.957031 26.058594 14.445312 28.195312 14.457031 C 30.261719 14.460938 32 16.003906 32.246094 18.054688 Z M 65.902344 22.960938 L 71.511719 10.4375 L 77.203125 10.4375 L 67.800781 30.960938 L 64.007812 30.960938 L 54.605469 10.4375 L 60.296875 10.4375 Z M 81.804688 0.800781 C 83.742188 0.835938 85.285156 2.425781 85.261719 4.363281 C 85.246094 5.789062 84.371094 7.0625 83.046875 7.589844 C 81.722656 8.117188 80.210938 7.796875 79.214844 6.773438 C 78.222656 5.75 77.945312 4.226562 78.511719 2.921875 C 79.078125 1.613281 80.378906 0.777344 81.804688 0.800781 "/>
<path style=" stroke:none;fill-rule:nonzero;fill:rgb(0%,0%,0%);fill-opacity:1;" d="M 79.0625 10.4375 L 84.542969 10.4375 L 84.542969 30.960938 L 79.0625 30.960938 Z M 79.0625 10.4375 "/>
<path style=" stroke:none;fill-rule:evenodd;fill:rgb(0%,0%,0%);fill-opacity:1;" d="M 107.199219 26.769531 C 105.089844 29.785156 101.597656 31.519531 97.921875 31.382812 C 94.035156 31.480469 90.402344 29.460938 88.429688 26.109375 C 86.460938 22.753906 86.46875 18.597656 88.449219 15.25 C 90.429688 11.90625 94.074219 9.898438 97.960938 10.015625 C 101.304688 9.988281 104.476562 11.5 106.5625 14.117188 L 102.683594 17.546875 C 101.585938 16.027344 99.835938 15.117188 97.960938 15.089844 C 96.476562 15.085938 95.054688 15.679688 94.015625 16.742188 C 92.976562 17.800781 92.410156 19.234375 92.449219 20.71875 C 92.398438 22.226562 92.980469 23.6875 94.054688 24.746094 C 95.125 25.804688 96.59375 26.371094 98.097656 26.304688 C 100.074219 26.265625 101.90625 25.25 102.988281 23.597656 Z M 127.105469 27.699219 C 124.972656 30.082031 121.914062 31.421875 118.71875 31.378906 C 115.847656 31.511719 113.054688 30.433594 111.019531 28.40625 C 108.980469 26.378906 107.890625 23.589844 108.011719 20.71875 C 108.011719 15.003906 111.890625 10.011719 117.960938 10.011719 C 123.609375 10.011719 127.613281 14.792969 127.613281 20.503906 C 127.617188 21.027344 127.574219 21.550781 127.488281 22.070312 L 113.320312 22.070312 C 113.585938 24.894531 116.007812 27.027344 118.84375 26.9375 C 120.808594 26.878906 122.667969 26.023438 123.988281 24.566406 Z M 122.007812 18.054688 C 121.761719 16.003906 120.027344 14.460938 117.960938 14.457031 C 115.824219 14.445312 113.980469 15.957031 113.574219 18.054688 Z M 129.792969 30.960938 L 129.792969 10.4375 L 135.0625 10.4375 L 135.0625 12.085938 C 136.683594 10.742188 138.730469 10.007812 140.835938 10.015625 C 143.570312 10.007812 146.167969 11.21875 147.917969 13.316406 C 149.496094 15.371094 150.25 17.9375 150.027344 20.515625 L 150.027344 30.960938 L 144.546875 30.960938 L 144.546875 20.078125 C 144.699219 18.679688 144.257812 17.28125 143.324219 16.230469 C 142.488281 15.457031 141.382812 15.046875 140.246094 15.085938 C 138.292969 15.144531 136.464844 16.074219 135.273438 17.625 L 135.273438 30.960938 Z M 129.792969 30.960938 "/>
<path style=" stroke:none;fill-rule:evenodd;fill:rgb(38.431373%,84.705883%,30.588236%);fill-opacity:1;" d="M 164.136719 10.015625 C 159.21875 10.003906 154.789062 12.996094 152.96875 17.566406 C 151.144531 22.136719 152.292969 27.355469 155.871094 30.734375 C 156.71875 31.542969 158.027344 31.609375 158.953125 30.894531 C 161.988281 28.636719 166.148438 28.636719 169.183594 30.894531 C 170.117188 31.613281 171.4375 31.535156 172.28125 30.714844 C 175.828125 27.347656 176.976562 22.167969 175.1875 17.617188 C 173.398438 13.066406 169.027344 10.058594 164.136719 10.011719 M 164.066406 28 C 162.46875 28.042969 160.925781 27.429688 159.796875 26.296875 C 158.664062 25.167969 158.050781 23.625 158.09375 22.027344 C 158.09375 18.726562 160.769531 16.054688 164.066406 16.054688 C 167.367188 16.054688 170.042969 18.726562 170.042969 22.027344 C 170.085938 23.625 169.46875 25.167969 168.339844 26.296875 C 167.210938 27.429688 165.664062 28.042969 164.066406 28 "/>
<path style=" stroke:none;fill-rule:evenodd;fill:rgb(0%,0%,0%);fill-opacity:1;" d="M 186.859375 30.960938 L 182.777344 30.960938 L 174.640625 10.4375 L 180.113281 10.4375 L 184.574219 22.164062 L 188.949219 10.4375 L 193.523438 10.4375 L 197.859375 22.164062 L 202.359375 10.4375 L 207.832031 10.4375 L 199.695312 30.960938 L 195.613281 30.960938 L 191.238281 19.273438 Z M 186.859375 30.960938 "/>
<path style=" stroke:none;fill-rule:nonzero;fill:rgb(0%,0%,0%);fill-opacity:1;" d="M 207.894531 28.640625 L 207.433594 28.640625 L 207.433594 29.507812 L 207.039062 29.507812 L 207.039062 27.132812 L 208 27.132812 C 208.203125 27.128906 208.398438 27.210938 208.542969 27.355469 C 208.683594 27.5 208.765625 27.691406 208.765625 27.894531 C 208.761719 28.199219 208.574219 28.472656 208.292969 28.585938 L 208.832031 29.511719 L 208.40625 29.511719 Z M 207.433594 28.289062 L 208 28.289062 C 208.222656 28.289062 208.398438 28.109375 208.398438 27.890625 C 208.398438 27.785156 208.359375 27.679688 208.28125 27.605469 C 208.207031 27.53125 208.105469 27.488281 208 27.488281 L 207.4375 27.488281 Z M 207.839844 26.15625 C 209.058594 26.15625 210.046875 27.140625 210.050781 28.359375 C 210.050781 29.578125 209.0625 30.570312 207.84375 30.570312 C 206.625 30.570312 205.636719 29.582031 205.636719 28.363281 C 205.632812 27.144531 206.621094 26.15625 207.839844 26.15625 M 207.839844 25.808594 C 206.425781 25.808594 205.28125 26.957031 205.28125 28.371094 C 205.28125 29.785156 206.425781 30.929688 207.839844 30.929688 C 209.253906 30.929688 210.402344 29.785156 210.402344 28.371094 C 210.402344 26.957031 209.253906 25.808594 207.839844 25.808594 M 207.839844 25.808594 "/>
</g>
</svg>

<svg role="img" viewBox="0 0 211.2 32" xmlns="http://www.w3.org/2000/svg"><path d="M51.234 10.227a8.981 8.981 0 0 0-5.773 2.078v-1.867h-5.27V30.96h5.48V17.84a6.498 6.498 0 0 1 4.974-2.54 5.55 5.55 0 0 1 2.199.329v-5.262a9.265 9.265 0 0 0-1.61-.14M3.457 24.7a8.58 8.58 0 0 0 5.598 2.027c1.476 0 2.613-.72 2.613-1.735 0-3.09-9.906-1.988-9.906-8.59 0-3.933 3.797-6.386 7.84-6.386 2.457.004 4.859.726 6.914 2.078l-2.563 3.969a6.915 6.915 0 0 0-3.922-1.395c-1.515 0-2.781.594-2.781 1.652 0 2.664 9.906 1.606 9.906 8.715 0 3.938-3.84 6.348-8.136 6.348A14.093 14.093 0 0 1 .8 28.64Zm34.395-4.192c0-5.711-4-10.492-9.657-10.492-6.07 0-9.949 4.992-9.949 10.703a10.247 10.247 0 0 0 10.715 10.664 11.069 11.069 0 0 0 8.387-3.68L34.23 24.57a7.235 7.235 0 0 1-5.144 2.371 5.38 5.38 0 0 1-5.527-4.863h14.168a9.19 9.19 0 0 0 .125-1.57m-14.04-2.453a4.44 4.44 0 0 1 4.383-3.598 4.085 4.085 0 0 1 4.051 3.598Zm42.09 4.905 5.61-12.522h5.691L67.801 30.96h-3.793l-9.403-20.523h5.692ZM81.805.8a3.521 3.521 0 0 1 3.457 3.563A3.52 3.52 0 1 1 81.805.801" style="stroke:none;fill-rule:evenodd;fill:rgb(0%,0%,0%);fill-opacity:1"/><path d="M79.063 10.438h5.48V30.96h-5.48Zm0 0" style="stroke:none;fill-rule:nonzero;fill:rgb(0%,0%,0%);fill-opacity:1"/><path d="M107.2 26.77a10.826 10.826 0 0 1-9.278 4.613 10.699 10.699 0 0 1-9.492-5.274 10.687 10.687 0 0 1 9.531-16.094 10.897 10.897 0 0 1 8.602 4.102l-3.88 3.43a5.93 5.93 0 0 0-4.722-2.457 5.494 5.494 0 0 0-3.945 1.652 5.47 5.47 0 0 0-1.567 3.977 5.4 5.4 0 0 0 1.606 4.027 5.411 5.411 0 0 0 4.043 1.559 5.992 5.992 0 0 0 4.89-2.707Zm19.905.93a11.054 11.054 0 0 1-8.386 3.679 10.24 10.24 0 0 1-10.707-10.66c0-5.715 3.879-10.707 9.949-10.707 5.648 0 9.652 4.781 9.652 10.492a9.098 9.098 0 0 1-.125 1.566H113.32a5.378 5.378 0 0 0 5.524 4.868 7.235 7.235 0 0 0 5.144-2.372Zm-5.097-9.645a4.084 4.084 0 0 0-4.047-3.598 4.444 4.444 0 0 0-4.387 3.598Zm7.785 12.905V10.439h5.27v1.648a8.995 8.995 0 0 1 5.773-2.07 9.185 9.185 0 0 1 7.082 3.3 10.369 10.369 0 0 1 2.11 7.2V30.96h-5.481V20.078a4.979 4.979 0 0 0-1.223-3.848 4.312 4.312 0 0 0-3.078-1.144 6.517 6.517 0 0 0-4.973 2.539v13.336Zm0 0" style="stroke:none;fill-rule:evenodd;fill:rgb(0%,0%,0%);fill-opacity:1"/><path d="M164.137 10.016a11.99 11.99 0 0 0-11.168 7.55 11.993 11.993 0 0 0 2.902 13.168 2.367 2.367 0 0 0 3.082.16 8.573 8.573 0 0 1 10.23 0 2.37 2.37 0 0 0 3.098-.18 12.002 12.002 0 0 0 2.906-13.097 11.995 11.995 0 0 0-11.05-7.605M164.067 28a5.802 5.802 0 0 1-4.27-1.703 5.802 5.802 0 0 1-1.703-4.27c0-3.3 2.676-5.972 5.972-5.972a5.973 5.973 0 0 1 5.977 5.972 5.817 5.817 0 0 1-1.703 4.27A5.817 5.817 0 0 1 164.066 28" style="stroke:none;fill-rule:evenodd;fill:rgb(38.431373%,84.705883%,30.588236%);fill-opacity:1"/><path d="M186.86 30.96h-4.083l-8.136-20.522h5.472l4.461 11.726 4.375-11.727h4.574l4.336 11.727 4.5-11.727h5.473l-8.137 20.524h-4.082l-4.375-11.688Zm0 0" style="stroke:none;fill-rule:evenodd;fill:rgb(0%,0%,0%);fill-opacity:1"/><path d="M207.895 28.64h-.461v.868h-.395v-2.375H208a.75.75 0 0 1 .543.222.77.77 0 0 1 .223.54.757.757 0 0 1-.473.69l.539.927h-.426Zm-.461-.35H208c.223 0 .398-.18.398-.4a.398.398 0 0 0-.398-.402h-.562Zm.406-2.134a2.207 2.207 0 0 1 .004 4.414 2.207 2.207 0 0 1-.004-4.414m0-.347a2.56 2.56 0 0 0 0 5.121 2.56 2.56 0 0 0 0-5.121m0 0" style="stroke:none;fill-rule:nonzero;fill:rgb(0%,0%,0%);fill-opacity:1"/></svg>
